Yaru++/emotes/16/face-tired.svg

<svg height="16" width="16" xmlns="http://www.w3.org/2000/svg"><g stroke-width="1.142857"><path d="m8 0a8 8 0 1 0 0 16 8 8 0 0 0 0-16zm-1.5714286 6.5714286c.2068572-.060571.4.072.4285715.2857143a.47085714.47085714 0 0 1 -.3211429.5005714l-3.1794286.928c-.2068571.0605714-.3988571-.0354286-.4274285-.2502857a.47085714.47085714 0 0 1 .32-.4994286zm2.9999996 0c.048-.00686.09143-.014857.142858 0l3.178285.9645714c.208.060571.350857.2857143.321143.4994286-.02857.2148571-.220571.3108571-.427428.2502857l-3.180572-.9291429a.47085714.47085714 0 0 1 -.32-.4994285.328.328 0 0 1 .285714-.2857143zm-5.5359996 3.7142854h8.2148576c.252571 0 .464.254857.464.571429 0 .316571-.211429.571428-.464.571428h-8.2148576c-.2525714 0-.464-.254857-.464-.571428 0-.316572.2114286-.571429.464-.571429z" fill="#eab305"/><path d="m8 0a8 8 0 0 0 -7.9866071 8.3482143 8 8 0 0 1 7.9866071-7.77678573 8 8 0 0 1 7.986607 7.65178573 8 8 0 0 0 -7.986607-8.2232143zm-1.2544642 7.2187499a.47085714.47085714 0 0 1 -.2098215.138393l-3.1785714.9285714c-.1177629.0344831-.2273157.0131721-.3080357-.046875a.47085714.47085714 0 0 0 -.1205358.3683036c.028571.2148571.2217143.3105714.4285715.25l3.1785714-.9285715a.47085714.47085714 0 0 0 .3214286-.5c-.0117474-.0878697-.0547042-.1571704-.1116071-.2098215zm2.5111602 0a.328.328 0 0 0 -.113839.2098215.47085714.47085714 0 0 0 .319197.5l3.180803.9285715c.206857.060571.4-.035143.428572-.25.01846-.132793-.03375-.2666756-.122768-.3660715-.08054.058496-.189285.078761-.305804.044643l-3.180803-.9285715a.47085714.47085714 0 0 1 -.205358-.138393zm-5.7544639 3.9241071c-.041507.08528-.073661.179029-.073661.285714.0000003.316572.2117146.571429.464286.571429h8.2142859c.252571 0 .464286-.254857.464286-.571429 0-.106685-.03215-.200438-.07366-.285714-.08166.167766-.22317.285714-.390625.285714h-8.2142869c-.1674542 0-.3089673-.117948-.390625-.285714z" fill="#fff" opacity=".3"/><path d="m6.578125 5.9888393c-.0476428-.00725-.0978393-.0039822-.1495536.0111607l-3.1785714.9642857a.47085714.47085714 0 0 0 -.3214286.5c.012306.09254.059466.1576959.1205358.203125a.47085714.47085714 0 0 1 .2008928-.1316964l3.1785714-.9642857c.1218068-.035667.2354694.0004875.3169644.075893a.47085714.47085714 0 0 0 .1116071-.3616073c-.0214286-.1602857-.1360893-.275125-.2790179-.296875zm2.850446.0111607a.328.328 0 0 0 -.285714.2857143.47085714.47085714 0 0 0 .113839.3616071.328.328 0 0 1 .171875-.075893c.048-.00686.09143-.014857.142858 0l3.178571.9642859c.07876.022935.144414.073359.198661.1339286.06244-.045353.11029-.1115246.122768-.2053572.029714-.2137143-.113429-.4394286-.321429-.5l-3.178571-.9642857c-.051429-.0148571-.094858-.0068571-.142858 0zm6.558036 1.6517857a8 8 0 0 1 -7.986607 7.7767853 8 8 0 0 1 -7.9866071-7.6517853 8 8 0 0 0 7.9866071 8.2232143 8 8 0 0 0 7.986607-8.3482143zm-12.0937499 2.0625c-.2525714 0-.4642857.2548572-.4642857.5714283 0 .106686.032154.200439.073661.285715.081658-.167766.2231708-.285715.390625-.285715h8.2142856c.167455 0 .308967.117949.390625.285715.04151-.08528.07366-.179029.07366-.285715 0-.3165711-.211715-.5714283-.464286-.5714283z" fill="#070500" opacity=".2"/></g></svg>

<?xml version="1.0" encoding="UTF-8" standalone="no"?>
<svg
   xmlns:dc="http://purl.org/dc/elements/1.1/"
   xmlns:cc="http://creativecommons.org/ns#"
   xmlns:rdf="http://www.w3.org/1999/02/22-rdf-syntax-ns#"
   xmlns:svg="http://www.w3.org/2000/svg"
   xmlns="http://www.w3.org/2000/svg"
   xmlns:sodipodi="http://sodipodi.sourceforge.net/DTD/sodipodi-0.dtd"
   xmlns:inkscape="http://www.inkscape.org/namespaces/inkscape"
   width="16"
   height="16"
   version="1.1"
   id="svg4"
   sodipodi:docname="face-tired.svg"
   inkscape:version="0.92.4 (5da689c313, 2019-01-14)">
  <metadata
     id="metadata10">
    <rdf:RDF>
      <cc:Work
         rdf:about="">
        <dc:format>image/svg+xml</dc:format>
        <dc:type
           rdf:resource="http://purl.org/dc/dcmitype/StillImage" />
      </cc:Work>
    </rdf:RDF>
  </metadata>
  <defs
     id="defs8" />
  <sodipodi:namedview
     pagecolor="#ffffff"
     bordercolor="#666666"
     borderopacity="1"
     objecttolerance="10"
     gridtolerance="10"
     guidetolerance="10"
     inkscape:pageopacity="0"
     inkscape:pageshadow="2"
     inkscape:window-width="1920"
     inkscape:window-height="1016"
     id="namedview6"
     showgrid="false"
     inkscape:zoom="14.75"
     inkscape:cx="-4.8813559"
     inkscape:cy="8"
     inkscape:window-x="0"
     inkscape:window-y="27"
     inkscape:window-maximized="1"
     inkscape:current-layer="svg4" />
  <path
     d="M 8,0 A 8,8 0 1 0 8,16 8,8 0 0 0 8,0 Z M 6.4285714,6.5714286 c 0.2068572,-0.060571 0.4,0.072 0.4285715,0.2857143 A 0.47085714,0.47085714 0 0 1 6.536,7.3577143 l -3.1794286,0.928 C 3.1497143,8.3462857 2.9577143,8.2502857 2.9291429,8.0354286 a 0.47085714,0.47085714 0 0 1 0.32,-0.4994286 z m 2.9999996,0 c 0.048,-0.00686 0.09143,-0.014857 0.142858,0 L 12.749714,7.536 c 0.208,0.060571 0.350857,0.2857143 0.321143,0.4994286 -0.02857,0.2148571 -0.220571,0.3108571 -0.427428,0.2502857 L 9.462857,7.3565714 a 0.47085714,0.47085714 0 0 1 -0.32,-0.4994285 0.328,0.328 0 0 1 0.285714,-0.2857143 z M 3.8925714,10.285714 h 8.2148576 c 0.252571,0 0.464,0.254857 0.464,0.571429 0,0.316571 -0.211429,0.571428 -0.464,0.571428 H 3.8925714 c -0.2525714,0 -0.464,-0.254857 -0.464,-0.571428 0,-0.316572 0.2114286,-0.571429 0.464,-0.571429 z"
     id="path2"
     style="fill:#eab305;fill-opacity:1;stroke-width:1.14285719"
     inkscape:connector-curvature="0" />
  <path
     style="opacity:0.3;fill:#ffffff;fill-opacity:1;stroke-width:1.14285719"
     d="M 8,0 A 8,8 0 0 0 0.0133929,8.3482143 8,8 0 0 1 8,0.57142857 8,8 0 0 1 15.986607,8.2232143 8,8 0 0 0 8,0 Z M 6.7455358,7.2187499 A 0.47085714,0.47085714 0 0 1 6.5357143,7.3571429 L 3.3571429,8.2857143 C 3.23938,8.3201974 3.1298272,8.2988864 3.0491072,8.2388393 A 0.47085714,0.47085714 0 0 0 2.9285714,8.6071429 c 0.028571,0.2148571 0.2217143,0.3105714 0.4285715,0.25 L 6.5357143,7.9285714 a 0.47085714,0.47085714 0 0 0 0.3214286,-0.5 C 6.8453955,7.3407017 6.8024387,7.271401 6.7455358,7.2187499 Z m 2.5111602,0 a 0.328,0.328 0 0 0 -0.113839,0.2098215 0.47085714,0.47085714 0 0 0 0.319197,0.5 l 3.180803,0.9285715 c 0.206857,0.060571 0.4,-0.035143 0.428572,-0.25 0.01846,-0.132793 -0.03375,-0.2666756 -0.122768,-0.3660715 -0.08054,0.058496 -0.189285,0.078761 -0.305804,0.044643 L 9.462054,7.3571429 A 0.47085714,0.47085714 0 0 1 9.256696,7.2187499 Z M 3.5022321,11.142857 c -0.041507,0.08528 -0.073661,0.179029 -0.073661,0.285714 C 3.4285714,11.745143 3.6402857,12 3.8928571,12 h 8.2142859 c 0.252571,0 0.464286,-0.254857 0.464286,-0.571429 0,-0.106685 -0.03215,-0.200438 -0.07366,-0.285714 -0.08166,0.167766 -0.22317,0.285714 -0.390625,0.285714 H 3.8928571 c -0.1674542,0 -0.3089673,-0.117948 -0.390625,-0.285714 z"
     id="path829"
     inkscape:connector-curvature="0" />
  <path
     style="opacity:0.2;fill:#070500;fill-opacity:1;stroke-width:1.14285719"
     d="M 6.578125,5.9888393 C 6.5304822,5.9815893 6.4802857,5.9848571 6.4285714,6 L 3.25,6.9642857 a 0.47085714,0.47085714 0 0 0 -0.3214286,0.5 c 0.012306,0.09254 0.059466,0.1576959 0.1205358,0.203125 A 0.47085714,0.47085714 0 0 1 3.25,7.5357143 L 6.4285714,6.5714286 c 0.1218068,-0.035667 0.2354694,4.875e-4 0.3169644,0.075893 A 0.47085714,0.47085714 0 0 0 6.8571429,6.2857143 C 6.8357143,6.1254286 6.7210536,6.0105893 6.578125,5.9888393 Z M 9.428571,6 A 0.328,0.328 0 0 0 9.142857,6.2857143 0.47085714,0.47085714 0 0 0 9.256696,6.6473214 0.328,0.328 0 0 1 9.428571,6.5714284 c 0.048,-0.00686 0.09143,-0.014857 0.142858,0 L 12.75,7.5357143 c 0.07876,0.022935 0.144414,0.073359 0.198661,0.1339286 0.06244,-0.045353 0.11029,-0.1115246 0.122768,-0.2053572 C 13.101143,7.2505714 12.958,7.0248571 12.75,6.9642857 L 9.571429,6 C 9.52,5.9851429 9.476571,5.9931429 9.428571,6 Z m 6.558036,1.6517857 A 8,8 0 0 1 8,15.428571 8,8 0 0 1 0.0133929,7.7767857 8,8 0 0 0 8,16 8,8 0 0 0 15.986607,7.6517857 Z m -12.0937499,2.0625 c -0.2525714,0 -0.4642857,0.2548572 -0.4642857,0.5714283 0,0.106686 0.032154,0.200439 0.073661,0.285715 0.081658,-0.167766 0.2231708,-0.285715 0.390625,-0.285715 h 8.2142856 c 0.167455,0 0.308967,0.117949 0.390625,0.285715 0.04151,-0.08528 0.07366,-0.179029 0.07366,-0.285715 0,-0.3165711 -0.211715,-0.5714283 -0.464286,-0.5714283 z"
     id="path834"
     inkscape:connector-curvature="0" />
</svg>
